; generated by PrusaSlicer 2.3.0+ on 2021-07-28 at 19:24:22 UTC

; 

; external perimeters extrusion width = 0.45mm
; perimeters extrusion width = 0.45mm
; infill extrusion width = 0.45mm
; solid infill extrusion width = 0.45mm
; top infill extrusion width = 0.40mm
; support material extrusion width = 0.35mm
; first layer extrusion width = 0.42mm

M73 P0 R149
M73 Q0 S153
M201 X1000 Y1000 Z200 E5000 ; sets maximum accelerations, mm/sec^2
M203 X200 Y200 Z12 E120 ; sets maximum feedrates, mm/sec
M204 P1250 R1250 T1250 ; sets acceleration (P, T) and retract acceleration (R), mm/sec^2
M205 X8.00 Y8.00 Z0.40 E4.50 ; sets the jerk limits, mm/sec
M205 S0 T0 ; sets the minimum extruding and travel feed rate, mm/sec
M107
;TYPE:Custom
M862.3 P "MK3S" ; printer model check
M862.1 P0.4 ; nozzle diameter check
M115 U3.10.0 ; tell printer latest fw version
G90 ; use absolute coordinates
M83 ; extruder relative mode
M104 S235 ; set extruder temp
M140 S80 ; set bed temp
M190 S80 ; wait for bed temp
M109 S235 ; wait for extruder temp
G28 W ; home all without mesh bed level
G80 ; mesh bed leveling
G1 Y-3.0 F1000.0 ; go outside print area
G92 E0.0
G1 X60.0 E9.0 F1000.0 ; intro line
G1 X100.0 E12.5 F1000.0 ; intro line
G92 E0.0
M221 S95

; Don't change E values below. Excessive value can damage the printer.

M907 E538 ; set extruder motor current
G21 ; set units to millimeters
G90 ; use absolute coordinates
M83 ; use relative distances for extrusion
M900 K0.08 ; Filament gcode LA 1.5
M900 K45 ; Filament gcode LA 1.0
;LAYER_CHANGE
;Z:0.2
;HEIGHT:0.2
;BEFORE_LAYER_CHANGE
G92 E0.0
;0.2


G1 E-1.40000 F2100.000
G1 Z0.200 F10800.000
;AFTER_LAYER_CHANGE
;0.2
G1 Z0.400
G1 X90.016 Y62.129
G1 Z0.200
G1 E1.40000 F2100.000
M204 S1000
;TYPE:Skirt
;WIDTH:0.42
G1 F1200.000
G1 X90.606 Y61.275 E0.03255
G1 X91.531 Y60.247 E0.04335
G1 X92.384 Y59.520 E0.03514
G1 X93.171 Y58.990 E0.02977
G1 X94.142 Y58.479 E0.03441
G1 X95.110 Y58.103 E0.03255
G1 X96.114 Y57.838 E0.03256
G1 X97.206 Y57.681 E0.03459
G1 X152.006 Y57.646 E1.71821
G1 X153.864 Y57.834 E0.05857
G1 X155.537 Y58.344 E0.05483
G1 X156.866 Y59.013 E0.04663
G1 X158.282 Y60.069 E0.05539
G1 X159.530 Y61.450 E0.05836
G1 X160.434 Y62.960 E0.05521
G1 X160.968 Y64.349 E0.04663
G1 X161.312 Y66.118 E0.05650
G1 X161.353 Y143.095 E2.41357
G1 X161.268 Y144.249 E0.03629
G1 X160.955 Y145.699 E0.04650
G1 X160.543 Y146.811 E0.03719
G1 X159.984 Y147.871 E0.03756
G1 X159.387 Y148.734 E0.03292
G1 X158.431 Y149.790 E0.04465
G1 X157.564 Y150.519 E0.03552
G1 X156.687 Y151.095 E0.03292
G1 X155.744 Y151.572 E0.03311
G1 X154.680 Y151.960 E0.03552
G1 X153.658 Y152.203 E0.03292
G1 X152.266 Y152.348 E0.04391
G1 X97.870 Y152.353 E1.70555
G1 X96.739 Y152.266 E0.03555
G1 X95.290 Y151.952 E0.04650
G1 X94.184 Y151.540 E0.03700
G1 X93.129 Y150.984 E0.03737
G1 X92.263 Y150.384 E0.03304
G1 X91.206 Y149.427 E0.04471
G1 X90.477 Y148.560 E0.03552
G1 X89.896 Y147.671 E0.03330
G1 X89.421 Y146.728 E0.03312
G1 X89.033 Y145.657 E0.03570
G1 X88.735 Y144.265 E0.04465
G1 X88.649 Y143.201 E0.03347
G1 X88.647 Y66.905 E2.39219
G1 X88.732 Y65.751 E0.03629
G1 X89.045 Y64.301 E0.04650
G1 X89.457 Y63.189 E0.03719
G1 X89.988 Y62.182 E0.03568
G1 X90.321 Y62.358 F10800.000
G1 F1200.000
G1 X90.901 Y61.510 E0.03220
G1 X91.801 Y60.510 E0.04219
G1 X92.617 Y59.817 E0.03358
G1 X93.378 Y59.305 E0.02874
G1 X94.306 Y58.818 E0.03287
G1 X95.236 Y58.459 E0.03126
G1 X96.194 Y58.207 E0.03108
G1 X97.249 Y58.056 E0.03340
G1 X152.006 Y58.023 E1.71685
G1 X153.793 Y58.204 E0.05632
G1 X155.402 Y58.695 E0.05276
G1 X156.664 Y59.332 E0.04433
G1 X158.032 Y60.351 E0.05348
G1 X159.228 Y61.677 E0.05598
G1 X160.098 Y63.130 E0.05312
G1 X160.607 Y64.456 E0.04451
G1 X160.938 Y66.169 E0.05472
G1 X160.976 Y143.086 E2.41167
G1 X160.896 Y144.187 E0.03463
G1 X160.593 Y145.592 E0.04506
G1 X160.197 Y146.661 E0.03574
G1 X159.659 Y147.679 E0.03609
G1 X158.854 Y148.793 E0.04309
G1 X158.166 Y149.522 E0.03142
G1 X157.333 Y150.221 E0.03412
G1 X156.494 Y150.771 E0.03143
G1 X155.589 Y151.228 E0.03179
G1 X154.572 Y151.599 E0.03394
G1 X153.597 Y151.831 E0.03143
G1 X152.241 Y151.972 E0.04273
G1 X97.880 Y151.976 E1.70447
G1 X96.801 Y151.894 E0.03392
G1 X95.397 Y151.590 E0.04506
G1 X94.334 Y151.194 E0.03556
G1 X93.321 Y150.659 E0.03591
G1 X92.207 Y149.854 E0.04309
G1 X91.474 Y149.162 E0.03161
G1 X90.775 Y148.328 E0.03412
G1 X90.220 Y147.479 E0.03179
G1 X89.770 Y146.584 E0.03144
G1 X89.396 Y145.556 E0.03430
G1 X89.107 Y144.206 E0.04327
G1 X89.026 Y143.184 E0.03214
G1 X89.024 Y66.914 E2.39139
G1 X89.104 Y65.812 E0.03463
G1 X89.407 Y64.407 E0.04506
G1 X89.803 Y63.339 E0.03573
G1 X90.293 Y62.411 E0.03289
;WIPE_START
G1 F8640.000
G1 X90.901 Y61.510 E-0.25093
G1 X91.801 Y60.510 E-0.31073
G1 X92.617 Y59.817 E-0.24729
G1 X93.378 Y59.305 E-0.21167
G1 X94.306 Y58.818 E-0.24205
G1 X94.578 Y58.713 E-0.06733
;WIPE_END
G1 E-0.07000 F2100.000
G1 Z0.400 F10800.000
G1 X123.035 Y78.866
G1 Z0.200
G1 E1.40000 F2100.000
;TYPE:Perimeter
G1 F1200.000
G1 X123.262 Y78.542 E0.01240
G1 X123.542 Y78.262 E0.01240
G1 X123.866 Y78.035 E0.01240
G1 X124.224 Y77.868 E0.01240
G1 X124.606 Y77.766 E0.01240
G1 X124.970 Y77.734 E0.01146
G1 X125.387 Y77.764 E0.01309
G1 X125.776 Y77.868 E0.01264
G1 X126.134 Y78.035 E0.01240
G1 X126.458 Y78.262 E0.01240
G1 X126.738 Y78.542 E0.01240
G1 X126.965 Y78.866 E0.01240
G1 X127.132 Y79.224 E0.01240
G1 X127.234 Y79.606 E0.01240
G1 X127.269 Y80.000 E0.01240
G1 X127.234 Y80.394 E0.01240
G1 X127.132 Y80.776 E0.01240
G1 X126.965 Y81.134 E0.01240
G1 X126.738 Y81.458 E0.01240
G1 X126.458 Y81.738 E0.01240
G1 X126.134 Y81.965 E0.01240
G1 X125.776 Y82.132 E0.01240
G1 X125.394 Y82.234 E0.01240
G1 X125.000 Y82.269 E0.01240
G1 X124.606 Y82.234 E0.01240
G1 X124.224 Y82.132 E0.01240
G1 X123.866 Y81.965 E0.01240
G1 X123.542 Y81.738 E0.01240
G1 X123.283 Y81.479 E0.01146
G1 X123.039 Y81.141 E0.01309
G1 X122.868 Y80.776 E0.01264
G1 X122.766 Y80.394 E0.01240
G1 X122.731 Y80.000 E0.01240
G1 X122.766 Y79.606 E0.01240
G1 X122.868 Y79.224 E0.01240
G1 X123.010 Y78.920 E0.01052
G1 X123.352 Y79.079 F10800.000
G1 F1200.000
G1 X123.552 Y78.785 E0.01117
G1 X123.785 Y78.552 E0.01033
G1 X124.055 Y78.363 E0.01033
G1 X124.354 Y78.224 E0.01033
G1 X124.672 Y78.139 E0.01033
G1 X124.973 Y78.112 E0.00949
G1 X125.324 Y78.137 E0.01102
G1 X125.646 Y78.224 E0.01047
G1 X125.945 Y78.363 E0.01033
G1 X126.215 Y78.552 E0.01033
G1 X126.448 Y78.785 E0.01033
G1 X126.637 Y79.055 E0.01033
G1 X126.776 Y79.354 E0.01033
G1 X126.861 Y79.672 E0.01033
G1 X126.890 Y80.000 E0.01033
G1 X126.861 Y80.328 E0.01033
G1 X126.776 Y80.646 E0.01033
G1 X126.637 Y80.945 E0.01033
G1 X126.448 Y81.215 E0.01033
G1 X126.215 Y81.448 E0.01033
G1 X125.945 Y81.637 E0.01033
G1 X125.646 Y81.776 E0.01033
G1 X125.328 Y81.861 E0.01033
G1 X125.000 Y81.890 E0.01033
G1 X124.672 Y81.861 E0.01033
G1 X124.354 Y81.776 E0.01033
G1 X124.055 Y81.637 E0.01033
G1 X123.785 Y81.448 E0.01033
G1 X123.571 Y81.234 E0.00949
G1 X123.365 Y80.949 E0.01102
G1 X123.224 Y80.646 E0.01047
G1 X123.139 Y80.328 E0.01033
G1 X123.110 Y80.000 E0.01033
G1 X123.139 Y79.672 E0.01033
G1 X123.224 Y79.354 E0.01033
G1 X123.326 Y79.134 E0.00760
G1 X123.691 Y79.244 F10800.000
;TYPE:External perimeter
G1 F1200.000
G1 X123.842 Y79.028 E0.00826
G1 X124.028 Y78.842 E0.00826
G1 X124.244 Y78.691 E0.00826
G1 X124.483 Y78.580 E0.00826
G1 X124.738 Y78.511 E0.00826
G1 X124.976 Y78.491 E0.00751
G1 X125.261 Y78.511 E0.00895
G1 X125.517 Y78.580 E0.00831
G1 X125.756 Y78.691 E0.00826
G1 X125.972 Y78.842 E0.00826
G1 X126.158 Y79.028 E0.00826
G1 X126.309 Y79.244 E0.00826
G1 X126.420 Y79.483 E0.00826
G1 X126.489 Y79.738 E0.00826
G1 X126.512 Y80.000 E0.00826
G1 X126.489 Y80.262 E0.00826
G1 X126.420 Y80.517 E0.00826
G1 X126.309 Y80.756 E0.00826
G1 X126.158 Y80.972 E0.00826
G1 X125.972 Y81.158 E0.00826
G1 X125.756 Y81.309 E0.00826
G1 X125.517 Y81.420 E0.00826
G1 X125.262 Y81.489 E0.00826
G1 X125.000 Y81.512 E0.00826
G1 X124.738 Y81.489 E0.00826
G1 X124.483 Y81.420 E0.00826
G1 X124.244 Y81.309 E0.00826
G1 X124.028 Y81.158 E0.00826
G1 X123.859 Y80.989 E0.00751
G1 X123.692 Y80.757 E0.00895
G1 X123.580 Y80.517 E0.00831
G1 X123.511 Y80.262 E0.00826
G1 X123.488 Y80.000 E0.00826
G1 X123.511 Y79.738 E0.00826
G1 X123.580 Y79.483 E0.00826
G1 X123.666 Y79.299 E0.00638
G1 X123.559 Y79.016 F10800.000
;WIPE_START
G1 F8640.000
G1 X123.842 Y79.028 E-0.07452
G1 X124.028 Y78.842 E-0.06084
G1 X124.244 Y78.691 E-0.06084
G1 X124.483 Y78.580 E-0.06084
G1 X124.738 Y78.511 E-0.06084
G1 X124.976 Y78.491 E-0.05531
G1 X125.261 Y78.511 E-0.06592
G1 X125.517 Y78.580 E-0.06122
G1 X125.756 Y78.691 E-0.06084
G1 X125.972 Y78.842 E-0.06084
G1 X126.158 Y79.028 E-0.06084
G1 X126.309 Y79.244 E-0.06084
G1 X126.420 Y79.483 E-0.06084
G1 X126.489 Y79.738 E-0.06084
G1 X126.512 Y80.000 E-0.06084
G1 X126.489 Y80.262 E-0.06084
G1 X126.420 Y80.517 E-0.06084
G1 X126.309 Y80.756 E-0.06084
G1 X126.158 Y80.972 E-0.06084
G1 X125.972 Y81.158 E-0.06084
G1 X125.756 Y81.309 E-0.06084
G1 X125.604 Y81.380 E-0.03877
;WIPE_END
G1 E-0.07000 F2100.000
G1 Z0.400 F10800.000
G1 X124.970 Y132.734
G1 Z0.200
G1 E1.40000 F2100.000
;TYPE:Perimeter
G1 F1200.000
G1 X125.387 Y132.764 E0.01309
G1 X125.776 Y132.868 E0.01264
G1 X126.134 Y133.035 E0.01240
G1 X126.458 Y133.262 E0.01240
G1 X126.738 Y133.542 E0.01240
G1 X126.965 Y133.866 E0.01240
G1 X127.119 Y134.197 E0.01146
G1 X127.233 Y134.599 E0.01309
G1 X127.269 Y135.000 E0.01264
G1 X127.234 Y135.394 E0.01240
G1 X127.132 Y135.776 E0.01240
G1 X126.965 Y136.134 E0.01240
G1 X126.738 Y136.458 E0.01240
G1 X126.458 Y136.738 E0.01240
G1 X126.134 Y136.965 E0.01240
G1 X125.776 Y137.132 E0.01240
G1 X125.394 Y137.234 E0.01240
G1 X125.000 Y137.269 E0.01240
G1 X124.606 Y137.234 E0.01240
G1 X124.224 Y137.132 E0.01240
G1 X123.866 Y136.965 E0.01240
G1 X123.542 Y136.738 E0.01240
G1 X123.283 Y136.479 E0.01146
G1 X123.039 Y136.141 E0.01309
G1 X122.868 Y135.776 E0.01264
G1 X122.766 Y135.394 E0.01240
G1 X122.731 Y135.000 E0.01240
G1 X122.766 Y134.606 E0.01240
G1 X122.868 Y134.224 E0.01240
G1 X123.035 Y133.866 E0.01240
G1 X123.262 Y133.542 E0.01240
G1 X123.542 Y133.262 E0.01240
G1 X123.866 Y133.035 E0.01240
G1 X124.224 Y132.868 E0.01240
G1 X124.606 Y132.766 E0.01240
G1 X124.910 Y132.739 E0.00958
G1 X125.324 Y133.137 F10800.000
G1 F1200.000
G1 X125.646 Y133.224 E0.01047
G1 X125.945 Y133.363 E0.01033
G1 X126.215 Y133.552 E0.01033
G1 X126.448 Y133.785 E0.01033
G1 X126.637 Y134.055 E0.01033
G1 X126.765 Y134.329 E0.00949
G1 X126.861 Y134.667 E0.01102
G1 X126.890 Y135.000 E0.01047
G1 X126.861 Y135.328 E0.01033
G1 X126.776 Y135.646 E0.01033
G1 X126.637 Y135.945 E0.01033
G1 X126.448 Y136.215 E0.01033
G1 X126.215 Y136.448 E0.01033
G1 X125.945 Y136.637 E0.01033
G1 X125.646 Y136.776 E0.01033
G1 X125.328 Y136.861 E0.01033
G1 X125.000 Y136.890 E0.01033
G1 X124.672 Y136.861 E0.01033
G1 X124.354 Y136.776 E0.01033
G1 X124.055 Y136.637 E0.01033
G1 X123.785 Y136.448 E0.01033
G1 X123.571 Y136.234 E0.00949
G1 X123.365 Y135.949 E0.01102
G1 X123.224 Y135.646 E0.01047
G1 X123.139 Y135.328 E0.01033
G1 X123.110 Y135.000 E0.01033
G1 X123.139 Y134.672 E0.01033
G1 X123.224 Y134.354 E0.01033
G1 X123.363 Y134.055 E0.01033
G1 X123.552 Y133.785 E0.01033
G1 X123.785 Y133.552 E0.01033
G1 X124.055 Y133.363 E0.01033
G1 X124.354 Y133.224 E0.01033
G1 X124.672 Y133.139 E0.01033
G1 X124.973 Y133.112 E0.00949
G1 X125.264 Y133.133 E0.00914
G1 X125.237 Y133.509 F10800.000
;TYPE:External perimeter
G1 F1200.000
G1 X125.517 Y133.580 E0.00905
G1 X125.756 Y133.691 E0.00826
G1 X125.972 Y133.842 E0.00826
G1 X126.158 Y134.028 E0.00826
G1 X126.309 Y134.244 E0.00826
G1 X126.410 Y134.461 E0.00751
G1 X126.488 Y134.736 E0.00895
G1 X126.512 Y135.000 E0.00831
G1 X126.489 Y135.262 E0.00826
G1 X126.420 Y135.517 E0.00826
G1 X126.309 Y135.756 E0.00826
G1 X126.158 Y135.972 E0.00826
G1 X125.972 Y136.158 E0.00826
G1 X125.756 Y136.309 E0.00826
G1 X125.517 Y136.420 E0.00826
G1 X125.262 Y136.489 E0.00826
G1 X125.000 Y136.512 E0.00826
G1 X124.738 Y136.489 E0.00826
G1 X124.483 Y136.420 E0.00826
G1 X124.244 Y136.309 E0.00826
G1 X124.028 Y136.158 E0.00826
G1 X123.859 Y135.989 E0.00751
G1 X123.692 Y135.757 E0.00895
G1 X123.580 Y135.517 E0.00831
G1 X123.511 Y135.262 E0.00826
G1 X123.488 Y135.000 E0.00826
G1 X123.511 Y134.738 E0.00826
G1 X123.580 Y134.483 E0.00826
G1 X123.691 Y134.244 E0.00826
G1 X123.842 Y134.028 E0.00826
G1 X124.028 Y133.842 E0.00826
G1 X124.244 Y133.691 E0.00826
G1 X124.483 Y133.580 E0.00826
G1 X124.738 Y133.511 E0.00826
G1 X124.976 Y133.491 E0.00751
G1 X125.177 Y133.505 E0.00632
G1 X125.420 Y133.286 F10800.000
;WIPE_START
G1 F8640.000
G1 X125.517 Y133.580 E-0.08036
G1 X125.756 Y133.691 E-0.06084
G1 X125.972 Y133.842 E-0.06084
G1 X126.158 Y134.028 E-0.06084
G1 X126.309 Y134.244 E-0.06084
G1 X126.410 Y134.461 E-0.05531
G1 X126.488 Y134.736 E-0.06592
G1 X126.512 Y135.000 E-0.06122
G1 X126.489 Y135.262 E-0.06084
G1 X126.420 Y135.517 E-0.06084
G1 X126.309 Y135.756 E-0.06084
G1 X126.158 Y135.972 E-0.06084
G1 X125.972 Y136.158 E-0.06084
G1 X125.756 Y136.309 E-0.06084
G1 X125.517 Y136.420 E-0.06084
G1 X125.262 Y136.489 E-0.06084
G1 X125.000 Y136.512 E-0.06084
G1 X124.738 Y136.489 E-0.06084
G1 X124.483 Y136.420 E-0.06084
G1 X124.244 Y136.309 E-0.06084
G1 X124.028 Y136.158 E-0.06084
G1 X123.928 Y136.057 E-0.03293
;WIPE_END
G1 E-0.07000 F2100.000
G1 Z0.400 F10800.000
G1 X125.177 Y145.436
G1 Z0.200
G1 E1.40000 F2100.000
;TYPE:Perimeter
G1 F1200.000
G1 X98.030 Y145.436 E0.85116
G1 X97.746 Y145.421 E0.00895
G1 X97.494 Y145.381 E0.00799
G1 X97.248 Y145.315 E0.00799
G1 X97.010 Y145.224 E0.00799
G1 X96.783 Y145.108 E0.00799
G1 X96.569 Y144.969 E0.00799
G1 X96.371 Y144.809 E0.00799
G1 X96.191 Y144.629 E0.00799
G1 X96.031 Y144.431 E0.00799
G1 X95.892 Y144.217 E0.00799
G1 X95.776 Y143.990 E0.00799
G1 X95.685 Y143.752 E0.00799
G1 X95.619 Y143.506 E0.00799
G1 X95.579 Y143.254 E0.00799
G1 X95.564 Y142.970 E0.00895
G1 X95.564 Y67.030 E2.38101
G1 X95.579 Y66.746 E0.00895
G1 X95.619 Y66.494 E0.00799
G1 X95.685 Y66.248 E0.00799
G1 X95.776 Y66.010 E0.00799
G1 X95.892 Y65.783 E0.00799
G1 X96.031 Y65.569 E0.00799
G1 X96.191 Y65.371 E0.00799
G1 X96.371 Y65.191 E0.00799
G1 X96.569 Y65.031 E0.00799
G1 X96.783 Y64.892 E0.00799
G1 X97.010 Y64.776 E0.00799
G1 X97.248 Y64.685 E0.00799
G1 X97.494 Y64.619 E0.00799
G1 X97.746 Y64.579 E0.00799
G1 X98.030 Y64.564 E0.00895
G1 X151.970 Y64.564 E1.69123
G1 X152.254 Y64.579 E0.00894
G1 X152.506 Y64.619 E0.00799
G1 X152.752 Y64.685 E0.00799
G1 X152.990 Y64.776 E0.00799
G1 X153.217 Y64.892 E0.00799
G1 X153.431 Y65.031 E0.00799
G1 X153.629 Y65.191 E0.00799
G1 X153.809 Y65.371 E0.00799
G1 X153.969 Y65.569 E0.00799
G1 X154.108 Y65.783 E0.00799
G1 X154.224 Y66.010 E0.00799
G1 X154.315 Y66.248 E0.00799
G1 X154.381 Y66.494 E0.00799
G1 X154.421 Y66.746 E0.00799
G1 X154.436 Y67.030 E0.00895
G1 X154.436 Y142.970 E2.38102
G1 X154.421 Y143.254 E0.00895
G1 X154.381 Y143.506 E0.00799
G1 X154.315 Y143.752 E0.00799
G1 X154.224 Y143.990 E0.00799
G1 X154.108 Y144.217 E0.00799
G1 X153.969 Y144.431 E0.00799
G1 X153.809 Y144.629 E0.00799
G1 X153.629 Y144.809 E0.00799
G1 X153.431 Y144.969 E0.00799
G1 X153.217 Y145.108 E0.00799
G1 X152.990 Y145.224 E0.00799
G1 X152.752 Y145.315 E0.00799
G1 X152.506 Y145.381 E0.00799
G1 X152.254 Y145.421 E0.00799
G1 X151.970 Y145.436 E0.00895
G1 X125.237 Y145.436 E0.83818
M73 P0 R148
M73 Q0 S152
G1 X125.237 Y145.813 F10800.000
G1 F1200.000
G1 X98.021 Y145.813 E0.85335
G1 X97.706 Y145.796 E0.00988
G1 X97.415 Y145.750 E0.00923
G1 X97.131 Y145.674 E0.00923
G1 X96.856 Y145.569 E0.00923
G1 X96.594 Y145.435 E0.00923
G1 X96.347 Y145.275 E0.00923
G1 X96.119 Y145.090 E0.00923
G1 X95.910 Y144.881 E0.00923
G1 X95.725 Y144.653 E0.00923
G1 X95.565 Y144.406 E0.00923
G1 X95.431 Y144.144 E0.00923
G1 X95.326 Y143.869 E0.00923
G1 X95.250 Y143.585 E0.00923
G1 X95.204 Y143.294 E0.00923
G1 X95.187 Y142.979 E0.00988
G1 X95.187 Y67.021 E2.38163
G1 X95.204 Y66.706 E0.00988
G1 X95.250 Y66.415 E0.00923
G1 X95.326 Y66.131 E0.00923
G1 X95.431 Y65.856 E0.00923
G1 X95.565 Y65.594 E0.00923
G1 X95.725 Y65.347 E0.00923
G1 X95.910 Y65.119 E0.00923
G1 X96.119 Y64.910 E0.00923
G1 X96.347 Y64.725 E0.00923
G1 X96.594 Y64.565 E0.00923
