; generated by PrusaSlicer 2.3.0+ on 2021-07-28 at 19:24:34 UTC

; 

; external perimeters extrusion width = 0.45mm
; perimeters extrusion width = 0.45mm
; infill extrusion width = 0.45mm
; solid infill extrusion width = 0.45mm
; top infill extrusion width = 0.40mm
; support material extrusion width = 0.35mm
; first layer extrusion width = 0.42mm

M73 P0 R73
M73 Q0 S73
M201 X1000 Y1000 Z200 E5000 ; sets maximum accelerations, mm/sec^2
M203 X200 Y200 Z12 E120 ; sets maximum feedrates, mm/sec
M204 P1250 R1250 T1250 ; sets acceleration (P, T) and retract acceleration (R), mm/sec^2
M205 X8.00 Y8.00 Z0.40 E4.50 ; sets the jerk limits, mm/sec
M205 S0 T0 ; sets the minimum extruding and travel feed rate, mm/sec
M107
;TYPE:Custom
M862.3 P "MK3S" ; printer model check
M862.1 P0.4 ; nozzle diameter check
M115 U3.10.0 ; tell printer latest fw version
G90 ; use absolute coordinates
M83 ; extruder relative mode
M104 S235 ; set extruder temp
M140 S80 ; set bed temp
M190 S80 ; wait for bed temp
M109 S235 ; wait for extruder temp
G28 W ; home all without mesh bed level
G80 ; mesh bed leveling
G1 Y-3.0 F1000.0 ; go outside print area
G92 E0.0
G1 X60.0 E9.0 F1000.0 ; intro line
G1 X100.0 E12.5 F1000.0 ; intro line
G92 E0.0
M221 S95

; Don't change E values below. Excessive value can damage the printer.

M907 E538 ; set extruder motor current
G21 ; set units to millimeters
G90 ; use absolute coordinates
M83 ; use relative distances for extrusion
M900 K0.08 ; Filament gcode LA 1.5
M900 K45 ; Filament gcode LA 1.0
;LAYER_CHANGE
;Z:0.2
;HEIGHT:0.2
;BEFORE_LAYER_CHANGE
G92 E0.0
;0.2


M73 P0 R72
G1 E-1.40000 F2100.000
G1 Z0.200 F10800.000
;AFTER_LAYER_CHANGE
;0.2
G1 Z0.400
G1 X90.016 Y62.129
G1 Z0.200
G1 E1.40000 F2100.000
M204 S1000
;TYPE:Skirt
;WIDTH:0.42
G1 F1200.000
G1 X90.606 Y61.275 E0.03255
G1 X91.531 Y60.247 E0.04335
G1 X92.384 Y59.520 E0.03514
G1 X93.171 Y58.990 E0.02977
G1 X94.142 Y58.479 E0.03441
G1 X95.110 Y58.103 E0.03255
G1 X96.114 Y57.838 E0.03256
G1 X97.206 Y57.681 E0.03459
G1 X152.006 Y57.646 E1.71821
G1 X153.864 Y57.834 E0.05857
G1 X155.537 Y58.344 E0.05483
G1 X156.866 Y59.013 E0.04663
G1 X158.282 Y60.069 E0.05539
G1 X159.530 Y61.450 E0.05836
G1 X160.434 Y62.960 E0.05521
G1 X160.968 Y64.349 E0.04663
G1 X161.312 Y66.118 E0.05650
G1 X161.353 Y143.095 E2.41357
G1 X161.268 Y144.249 E0.03629
G1 X160.955 Y145.699 E0.04650
G1 X160.543 Y146.811 E0.03719
G1 X159.984 Y147.871 E0.03756
G1 X159.387 Y148.734 E0.03292
G1 X158.431 Y149.790 E0.04465
G1 X157.564 Y150.519 E0.03552
G1 X156.687 Y151.095 E0.03292
G1 X155.744 Y151.572 E0.03311
G1 X154.680 Y151.960 E0.03552
G1 X153.658 Y152.203 E0.03292
G1 X152.266 Y152.348 E0.04391
G1 X97.870 Y152.353 E1.70555
G1 X96.739 Y152.266 E0.03555
G1 X95.290 Y151.952 E0.04650
G1 X94.184 Y151.540 E0.03700
G1 X93.129 Y150.984 E0.03737
G1 X92.263 Y150.384 E0.03304
G1 X91.206 Y149.427 E0.04471
G1 X90.477 Y148.560 E0.03552
G1 X89.896 Y147.671 E0.03330
G1 X89.421 Y146.728 E0.03312
G1 X89.033 Y145.657 E0.03570
G1 X88.735 Y144.265 E0.04465
G1 X88.649 Y143.201 E0.03347
G1 X88.647 Y66.905 E2.39219
G1 X88.732 Y65.751 E0.03629
G1 X89.045 Y64.301 E0.04650
G1 X89.457 Y63.189 E0.03719
G1 X89.988 Y62.182 E0.03568
G1 X90.321 Y62.358 F10800.000
G1 F1200.000
G1 X90.901 Y61.510 E0.03220
G1 X91.801 Y60.510 E0.04219
G1 X92.617 Y59.817 E0.03358
G1 X93.378 Y59.305 E0.02874
G1 X94.306 Y58.818 E0.03287
G1 X95.236 Y58.459 E0.03126
G1 X96.194 Y58.207 E0.03108
G1 X97.249 Y58.056 E0.03340
G1 X152.006 Y58.023 E1.71685
G1 X153.793 Y58.204 E0.05632
G1 X155.402 Y58.695 E0.05276
G1 X156.664 Y59.332 E0.04433
G1 X158.032 Y60.351 E0.05348
G1 X159.228 Y61.677 E0.05598
G1 X160.098 Y63.130 E0.05312
G1 X160.607 Y64.456 E0.04451
G1 X160.938 Y66.169 E0.05472
G1 X160.976 Y143.086 E2.41167
M73 Q0 S72
G1 X160.896 Y144.187 E0.03463
G1 X160.593 Y145.592 E0.04506
G1 X160.197 Y146.661 E0.03574
G1 X159.659 Y147.679 E0.03609
G1 X158.854 Y148.793 E0.04309
G1 X158.166 Y149.522 E0.03142
G1 X157.333 Y150.221 E0.03412
G1 X156.494 Y150.771 E0.03143
G1 X155.589 Y151.228 E0.03179
G1 X154.572 Y151.599 E0.03394
G1 X153.597 Y151.831 E0.03143
G1 X152.241 Y151.972 E0.04273
G1 X97.880 Y151.976 E1.70447
G1 X96.801 Y151.894 E0.03392
G1 X95.397 Y151.590 E0.04506
G1 X94.334 Y151.194 E0.03556
G1 X93.321 Y150.659 E0.03591
G1 X92.207 Y149.854 E0.04309
G1 X91.474 Y149.162 E0.03161
G1 X90.775 Y148.328 E0.03412
G1 X90.220 Y147.479 E0.03179
G1 X89.770 Y146.584 E0.03144
G1 X89.396 Y145.556 E0.03430
G1 X89.107 Y144.206 E0.04327
G1 X89.026 Y143.184 E0.03214
G1 X89.024 Y66.914 E2.39139
G1 X89.104 Y65.812 E0.03463
G1 X89.407 Y64.407 E0.04506
G1 X89.803 Y63.339 E0.03573
G1 X90.293 Y62.411 E0.03289
;WIPE_START
G1 F8640.000
G1 X90.901 Y61.510 E-0.25093
G1 X91.801 Y60.510 E-0.31073
G1 X92.617 Y59.817 E-0.24729
G1 X93.378 Y59.305 E-0.21167
G1 X94.306 Y58.818 E-0.24205
G1 X94.578 Y58.713 E-0.06733
;WIPE_END
G1 E-0.07000 F2100.000
G1 Z0.400 F10800.000
G1 X150.698 Y141.239
G1 Z0.200
G1 E1.40000 F2100.000
;TYPE:Perimeter
G1 F1200.000
G1 X151.014 Y141.045 E0.01165
G1 X151.359 Y140.906 E0.01165
G1 X151.722 Y140.828 E0.01165
G1 X152.056 Y140.814 E0.01048
G1 X152.456 Y140.858 E0.01263
G1 X152.817 Y140.968 E0.01181
G1 X153.148 Y141.135 E0.01165
G1 X153.447 Y141.356 E0.01165
G1 X153.704 Y141.624 E0.01165
G1 X153.912 Y141.932 E0.01165
G1 X154.065 Y142.270 E0.01165
G1 X154.158 Y142.630 E0.01165
G1 X154.190 Y143.000 E0.01165
G1 X154.158 Y143.370 E0.01165
G1 X154.065 Y143.730 E0.01165
G1 X153.912 Y144.068 E0.01165
G1 X153.704 Y144.376 E0.01165
G1 X153.447 Y144.644 E0.01165
G1 X153.148 Y144.865 E0.01165
G1 X152.817 Y145.032 E0.01165
G1 X152.461 Y145.141 E0.01165
G1 X152.093 Y145.188 E0.01165
G1 X151.722 Y145.172 E0.01165
G1 X151.359 Y145.094 E0.01165
G1 X151.014 Y144.955 E0.01165
G1 X150.698 Y144.761 E0.01165
G1 X150.419 Y144.515 E0.01165
G1 X150.186 Y144.226 E0.01165
G1 X150.004 Y143.902 E0.01165
G1 X149.881 Y143.552 E0.01165
G1 X149.818 Y143.186 E0.01165
G1 X149.818 Y142.814 E0.01165
G1 X149.881 Y142.448 E0.01165
G1 X150.004 Y142.098 E0.01165
G1 X150.186 Y141.774 E0.01165
G1 X150.419 Y141.485 E0.01165
G1 X150.653 Y141.279 E0.00976
G1 X150.902 Y141.562 F10800.000
;TYPE:External perimeter
G1 F1200.000
G1 X151.184 Y141.382 E0.01050
G1 X151.470 Y141.268 E0.00963
G1 X151.770 Y141.203 E0.00963
G1 X152.043 Y141.192 E0.00858
G1 X152.380 Y141.229 E0.01062
G1 X152.675 Y141.319 E0.00969
G1 X152.950 Y141.457 E0.00963
G1 X153.197 Y141.640 E0.00963
G1 X153.409 Y141.862 E0.00963
G1 X153.581 Y142.117 E0.00963
G1 X153.708 Y142.397 E0.00963
G1 X153.785 Y142.694 E0.00963
G1 X153.811 Y143.000 E0.00963
G1 X153.785 Y143.306 E0.00963
G1 X153.708 Y143.603 E0.00963
G1 X153.581 Y143.883 E0.00963
G1 X153.409 Y144.138 E0.00963
G1 X153.197 Y144.360 E0.00963
G1 X152.950 Y144.543 E0.00963
G1 X152.675 Y144.681 E0.00963
G1 X152.382 Y144.771 E0.00963
G1 X152.077 Y144.810 E0.00963
G1 X151.770 Y144.797 E0.00963
G1 X151.470 Y144.732 E0.00963
G1 X151.184 Y144.618 E0.00963
G1 X150.923 Y144.456 E0.00963
G1 X150.692 Y144.253 E0.00963
G1 X150.499 Y144.014 E0.00963
G1 X150.349 Y143.746 E0.00963
G1 X150.247 Y143.456 E0.00963
G1 X150.195 Y143.154 E0.00963
G1 X150.195 Y142.846 E0.00963
G1 X150.247 Y142.544 E0.00963
G1 X150.349 Y142.254 E0.00963
G1 X150.499 Y141.986 E0.00963
G1 X150.692 Y141.747 E0.00963
G1 X150.857 Y141.602 E0.00688
G1 X150.860 Y141.230 F10800.000
;WIPE_START
G1 F8640.000
G1 X151.184 Y141.382 E-0.09102
G1 X151.470 Y141.268 E-0.07095
G1 X151.770 Y141.203 E-0.07094
G1 X152.043 Y141.192 E-0.06315
G1 X152.380 Y141.229 E-0.07821
G1 X152.675 Y141.319 E-0.07138
G1 X152.950 Y141.457 E-0.07094
G1 X153.197 Y141.640 E-0.07095
G1 X153.409 Y141.862 E-0.07094
G1 X153.581 Y142.117 E-0.07095
G1 X153.708 Y142.397 E-0.07094
G1 X153.785 Y142.694 E-0.07094
G1 X153.811 Y143.000 E-0.07095
G1 X153.785 Y143.306 E-0.07095
G1 X153.708 Y143.603 E-0.07094
G1 X153.581 Y143.883 E-0.07094
G1 X153.409 Y144.138 E-0.07095
G1 X153.197 Y144.360 E-0.07094
G1 X153.082 Y144.445 E-0.03302
;WIPE_END
G1 E-0.07000 F2100.000
G1 Z0.400 F10800.000
G1 X100.190 Y143.000
G1 Z0.200
G1 E1.40000 F2100.000
;TYPE:Perimeter
G1 F1200.000
G1 X100.158 Y143.370 E0.01165
G1 X100.065 Y143.730 E0.01165
G1 X99.912 Y144.068 E0.01165
G1 X99.704 Y144.376 E0.01165
G1 X99.447 Y144.644 E0.01165
G1 X99.148 Y144.865 E0.01165
G1 X98.817 Y145.032 E0.01165
G1 X98.461 Y145.141 E0.01165
G1 X98.093 Y145.188 E0.01165
G1 X97.722 Y145.172 E0.01165
G1 X97.359 Y145.094 E0.01165
G1 X97.014 Y144.955 E0.01165
G1 X96.698 Y144.761 E0.01165
G1 X96.419 Y144.515 E0.01165
G1 X96.186 Y144.226 E0.01165
G1 X96.004 Y143.902 E0.01165
G1 X95.881 Y143.552 E0.01165
G1 X95.818 Y143.186 E0.01165
G1 X95.818 Y142.814 E0.01165
G1 X95.881 Y142.448 E0.01165
G1 X96.004 Y142.098 E0.01165
G1 X96.186 Y141.774 E0.01165
G1 X96.419 Y141.485 E0.01165
G1 X96.698 Y141.239 E0.01165
G1 X97.014 Y141.045 E0.01165
G1 X97.359 Y140.906 E0.01165
G1 X97.722 Y140.828 E0.01165
G1 X98.056 Y140.814 E0.01048
G1 X98.456 Y140.858 E0.01263
G1 X98.817 Y140.968 E0.01181
G1 X99.148 Y141.135 E0.01165
G1 X99.447 Y141.356 E0.01165
G1 X99.704 Y141.624 E0.01165
G1 X99.912 Y141.932 E0.01165
G1 X100.065 Y142.270 E0.01165
G1 X100.158 Y142.630 E0.01165
G1 X100.185 Y142.940 E0.00977
G1 X99.809 Y142.972 F10800.000
;TYPE:External perimeter
G1 F1200.000
G1 X99.785 Y143.306 E0.01050
G1 X99.708 Y143.603 E0.00963
G1 X99.581 Y143.883 E0.00963
G1 X99.409 Y144.138 E0.00963
G1 X99.197 Y144.360 E0.00963
G1 X98.950 Y144.543 E0.00963
G1 X98.675 Y144.681 E0.00963
G1 X98.382 Y144.771 E0.00963
G1 X98.077 Y144.810 E0.00963
G1 X97.770 Y144.797 E0.00963
G1 X97.470 Y144.732 E0.00963
G1 X97.184 Y144.618 E0.00963
G1 X96.923 Y144.456 E0.00963
G1 X96.692 Y144.253 E0.00963
G1 X96.499 Y144.014 E0.00963
G1 X96.349 Y143.746 E0.00963
G1 X96.247 Y143.456 E0.00963
G1 X96.195 Y143.154 E0.00963
G1 X96.195 Y142.846 E0.00963
G1 X96.247 Y142.544 E0.00963
G1 X96.349 Y142.254 E0.00963
G1 X96.499 Y141.986 E0.00963
G1 X96.692 Y141.747 E0.00963
G1 X96.923 Y141.544 E0.00963
G1 X97.184 Y141.382 E0.00963
G1 X97.470 Y141.268 E0.00963
G1 X97.770 Y141.203 E0.00963
G1 X98.043 Y141.192 E0.00858
G1 X98.380 Y141.229 E0.01062
G1 X98.675 Y141.319 E0.00969
G1 X98.950 Y141.457 E0.00963
G1 X99.197 Y141.640 E0.00963
G1 X99.409 Y141.862 E0.00963
G1 X99.581 Y142.117 E0.00963
M73 Q1 S72
G1 X99.708 Y142.397 E0.00963
G1 X99.785 Y142.694 E0.00963
G1 X99.804 Y142.912 E0.00688
G1 X100.101 Y143.136 F10800.000
;WIPE_START
G1 F8640.000
G1 X99.785 Y143.306 E-0.09102
G1 X99.708 Y143.603 E-0.07095
G1 X99.581 Y143.883 E-0.07094
G1 X99.409 Y144.138 E-0.07094
G1 X99.197 Y144.360 E-0.07094
G1 X98.950 Y144.543 E-0.07094
G1 X98.675 Y144.681 E-0.07095
G1 X98.382 Y144.771 E-0.07094
G1 X98.077 Y144.810 E-0.07094
G1 X97.770 Y144.797 E-0.07095
G1 X97.470 Y144.732 E-0.07094
G1 X97.184 Y144.618 E-0.07095
G1 X96.923 Y144.456 E-0.07095
G1 X96.692 Y144.253 E-0.07094
G1 X96.499 Y144.014 E-0.07094
G1 X96.349 Y143.746 E-0.07095
G1 X96.247 Y143.456 E-0.07094
G1 X96.195 Y143.154 E-0.07094
G1 X96.195 Y143.011 E-0.03293
;WIPE_END
G1 E-0.07000 F2100.000
G1 Z0.400 F10800.000
G1 X98.093 Y69.188
M73 P1 R72
G1 Z0.200
G1 E1.40000 F2100.000
;TYPE:Perimeter
G1 F1200.000
G1 X97.722 Y69.172 E0.01165
G1 X97.359 Y69.094 E0.01165
G1 X97.014 Y68.955 E0.01165
G1 X96.698 Y68.761 E0.01165
G1 X96.419 Y68.515 E0.01165
G1 X96.186 Y68.226 E0.01165
G1 X96.004 Y67.902 E0.01165
G1 X95.881 Y67.552 E0.01165
G1 X95.818 Y67.186 E0.01165
G1 X95.818 Y66.814 E0.01165
G1 X95.881 Y66.448 E0.01165
G1 X96.004 Y66.098 E0.01165
G1 X96.186 Y65.774 E0.01165
G1 X96.419 Y65.485 E0.01165
G1 X96.698 Y65.239 E0.01165
G1 X97.014 Y65.045 E0.01165
G1 X97.359 Y64.906 E0.01165
G1 X97.722 Y64.828 E0.01165
G1 X98.056 Y64.814 E0.01048
G1 X98.456 Y64.858 E0.01263
G1 X98.817 Y64.968 E0.01181
G1 X99.148 Y65.135 E0.01165
G1 X99.447 Y65.356 E0.01165
G1 X99.704 Y65.624 E0.01165
G1 X99.912 Y65.932 E0.01165
G1 X100.065 Y66.270 E0.01165
G1 X100.158 Y66.630 E0.01165
G1 X100.190 Y67.000 E0.01165
G1 X100.158 Y67.370 E0.01165
G1 X100.065 Y67.730 E0.01165
G1 X99.912 Y68.068 E0.01165
G1 X99.704 Y68.376 E0.01165
G1 X99.447 Y68.644 E0.01165
G1 X99.148 Y68.865 E0.01165
G1 X98.817 Y69.032 E0.01165
G1 X98.461 Y69.141 E0.01165
G1 X98.152 Y69.180 E0.00977
G1 X98.105 Y68.806 F10800.000
;TYPE:External perimeter
G1 F1200.000
G1 X97.770 Y68.797 E0.01050
G1 X97.470 Y68.732 E0.00963
G1 X97.184 Y68.618 E0.00963
G1 X96.923 Y68.456 E0.00963
G1 X96.692 Y68.253 E0.00963
G1 X96.499 Y68.014 E0.00963
G1 X96.349 Y67.746 E0.00963
G1 X96.247 Y67.456 E0.00963
G1 X96.195 Y67.154 E0.00963
G1 X96.195 Y66.846 E0.00963
G1 X96.247 Y66.544 E0.00963
G1 X96.349 Y66.254 E0.00963
G1 X96.499 Y65.986 E0.00963
G1 X96.692 Y65.747 E0.00963
G1 X96.923 Y65.544 E0.00963
G1 X97.184 Y65.382 E0.00963
G1 X97.470 Y65.268 E0.00963
G1 X97.770 Y65.203 E0.00963
G1 X98.043 Y65.192 E0.00858
G1 X98.380 Y65.229 E0.01062
G1 X98.675 Y65.319 E0.00969
G1 X98.950 Y65.457 E0.00963
G1 X99.197 Y65.640 E0.00963
G1 X99.409 Y65.862 E0.00963
G1 X99.581 Y66.117 E0.00963
G1 X99.708 Y66.397 E0.00963
G1 X99.785 Y66.694 E0.00963
G1 X99.811 Y67.000 E0.00963
G1 X99.785 Y67.306 E0.00963
G1 X99.708 Y67.603 E0.00963
G1 X99.581 Y67.883 E0.00963
G1 X99.409 Y68.138 E0.00963
G1 X99.197 Y68.360 E0.00963
G1 X98.950 Y68.543 E0.00963
G1 X98.675 Y68.681 E0.00963
G1 X98.382 Y68.771 E0.00963
G1 X98.164 Y68.799 E0.00688
G1 X97.953 Y69.105 F10800.000
;WIPE_START
G1 F8640.000
G1 X97.770 Y68.797 E-0.09101
G1 X97.470 Y68.732 E-0.07094
G1 X97.184 Y68.618 E-0.07095
G1 X96.923 Y68.456 E-0.07094
G1 X96.692 Y68.253 E-0.07095
G1 X96.499 Y68.014 E-0.07095
G1 X96.349 Y67.746 E-0.07094
G1 X96.247 Y67.456 E-0.07094
G1 X96.195 Y67.154 E-0.07094
G1 X96.195 Y66.846 E-0.07094
G1 X96.247 Y66.544 E-0.07094
G1 X96.349 Y66.254 E-0.07094
G1 X96.499 Y65.986 E-0.07095
G1 X96.692 Y65.747 E-0.07095
G1 X96.923 Y65.544 E-0.07094
G1 X97.184 Y65.382 E-0.07094
G1 X97.470 Y65.268 E-0.07095
G1 X97.770 Y65.203 E-0.07094
G1 X97.912 Y65.197 E-0.03293
;WIPE_END
G1 E-0.07000 F2100.000
G1 Z0.400 F10800.000
G1 X122.725 Y116.962
G1 Z0.200
G1 E1.40000 F2100.000
;TYPE:Perimeter
G1 F1200.000
G1 X123.206 Y116.756 E0.01641
G1 X123.705 Y116.599 E0.01641
G1 X124.218 Y116.494 E0.01641
G1 X124.738 Y116.441 E0.01641
G1 X125.262 Y116.441 E0.01641
G1 X125.782 Y116.494 E0.01641
G1 X126.295 Y116.599 E0.01641
G1 X126.794 Y116.756 E0.01641
G1 X127.275 Y116.962 E0.01641
G1 X127.732 Y117.216 E0.01641
G1 X128.162 Y117.515 E0.01641
G1 X128.559 Y117.856 E0.01641
G1 X128.919 Y118.235 E0.01641
G1 X129.240 Y118.649 E0.01641
G1 X129.517 Y119.093 E0.01641
G1 X129.747 Y119.563 E0.01641
G1 X129.929 Y120.054 E0.01641
G1 X130.060 Y120.560 E0.01641
G1 X130.139 Y121.077 E0.01641
G1 X130.166 Y121.600 E0.01641
G1 X130.139 Y122.123 E0.01641
G1 X130.060 Y122.640 E0.01641
G1 X129.929 Y123.146 E0.01641
G1 X129.747 Y123.637 E0.01641
G1 X129.517 Y124.107 E0.01641
G1 X129.240 Y124.551 E0.01641
G1 X128.919 Y124.965 E0.01641
G1 X128.559 Y125.344 E0.01641
G1 X128.162 Y125.685 E0.01641
G1 X127.732 Y125.984 E0.01641
G1 X127.275 Y126.238 E0.01641
G1 X126.794 Y126.444 E0.01641
G1 X126.295 Y126.601 E0.01641
G1 X125.782 Y126.706 E0.01641
G1 X125.262 Y126.759 E0.01641
G1 X124.738 Y126.759 E0.01641
G1 X124.218 Y126.706 E0.01641
G1 X123.705 Y126.601 E0.01641
G1 X123.206 Y126.444 E0.01641
G1 X122.725 Y126.238 E0.01641
G1 X122.268 Y125.984 E0.01641
G1 X121.838 Y125.685 E0.01641
G1 X121.441 Y125.344 E0.01641
G1 X121.081 Y124.965 E0.01641
G1 X120.760 Y124.551 E0.01641
G1 X120.483 Y124.107 E0.01641
G1 X120.253 Y123.637 E0.01641
G1 X120.071 Y123.146 E0.01641
G1 X119.940 Y122.640 E0.01641
G1 X119.861 Y122.123 E0.01641
G1 X119.834 Y121.600 E0.01641
G1 X119.861 Y121.077 E0.01641
G1 X119.940 Y120.560 E0.01641
G1 X120.071 Y120.054 E0.01641
G1 X120.253 Y119.563 E0.01641
G1 X120.483 Y119.093 E0.01641
G1 X120.760 Y118.649 E0.01641
G1 X121.081 Y118.235 E0.01641
G1 X121.441 Y117.856 E0.01641
G1 X121.838 Y117.515 E0.01641
G1 X122.268 Y117.216 E0.01641
G1 X122.673 Y116.991 E0.01453
G1 X122.856 Y117.321 F10800.000
G1 F1200.000
G1 X123.337 Y117.110 E0.01648
G1 X123.800 Y116.965 E0.01521
G1 X124.275 Y116.867 E0.01521
G1 X124.757 Y116.818 E0.01521
G1 X125.243 Y116.818 E0.01521
G1 X125.725 Y116.867 E0.01521
